img/cursor.svg

<svg width="16" height="17" viewBox="0 0 16 17" fill="none" xmlns="http://www.w3.org/2000/svg">
<path d="M3.86569 13.0041C3.56569 12.6041 3.26569 11.9041 2.66569 11.0041C2.36569 10.5041 1.46569 9.50405 1.16569 9.10405C0.965686 8.70405 0.965685 8.50405 1.06569 8.10405C1.16569 7.50405 1.76568 7.00405 2.46568 7.00405C2.96568 7.00405 3.46569 7.40405 3.86569 7.70405C4.06569 7.90405 4.36569 8.30405 4.56569 8.50405C4.76569 8.70405 4.76568 8.80405 4.96568 9.00405C5.16568 9.30405 5.26569 9.50405 5.16569 9.10405C5.06569 8.60405 4.96569 7.80405 4.76569 7.00405C4.66569 6.40405 4.56568 6.30405 4.46568 5.90405C4.36568 5.40405 4.26569 5.10405 4.16569 4.60405C4.06569 4.30405 3.96569 3.50405 3.86569 3.10405C3.76569 2.60405 3.76569 1.70405 4.16569 1.30405C4.46569 1.00405 5.06568 0.904052 5.46568 1.10405C5.96568 1.40405 6.26569 2.10405 6.36569 2.40405C6.56569 2.90405 6.76569 3.60405 6.86569 4.40405C7.06569 5.40405 7.36569 6.90405 7.36569 7.20405C7.36569 6.80405 7.26569 6.10405 7.36569 5.70405C7.46569 5.40405 7.66569 5.00405 8.06569 4.90405C8.36569 4.80405 8.66568 4.80405 8.96568 4.80405C9.26568 4.90405 9.56569 5.10405 9.76569 5.30405C10.1657 5.90405 10.1657 7.20405 10.1657 7.10405C10.2657 6.70405 10.2657 5.90405 10.4657 5.50405C10.5657 5.30405 10.9657 5.10405 11.1657 5.00405C11.4657 4.90405 11.8657 4.90405 12.1657 5.00405C12.3657 5.00405 12.7657 5.30405 12.8657 5.50405C13.0657 5.80405 13.1657 6.80405 13.2657 7.20405C13.2657 7.30405 13.3657 6.80405 13.5657 6.50405C13.9657 5.90405 15.3657 5.70405 15.4657 7.10405C15.4657 7.80405 15.4657 7.70405 15.4657 8.20405C15.4657 8.70405 15.4657 9.00405 15.4657 9.40405C15.4657 9.80405 15.3657 10.7041 15.2657 11.1041C15.1657 11.4041 14.8657 12.1041 14.5657 12.5041C14.5657 12.5041 13.4657 13.7041 13.3657 14.3041C13.2657 14.9041 13.2657 14.9041 13.2657 15.3041C13.2657 15.7041 13.3657 16.2041 13.3657 16.2041C13.3657 16.2041 12.5657 16.3041 12.1657 16.2041C11.7657 16.1041 11.2657 15.4041 11.1657 15.1041C10.9657 14.8041 10.6657 14.8041 10.4657 15.1041C10.2657 15.5041 9.76568 16.2041 9.36568 16.2041C8.66568 16.3041 7.26569 16.2041 6.26569 16.2041C6.26569 16.2041 6.46569 15.2041 6.06569 14.8041C5.76569 14.5041 5.26568 14.0041 4.96568 13.7041L3.86569 13.0041Z" fill="white"/>
<path d="M3.86569 13.0041C3.56569 12.6041 3.26569 11.9041 2.66569 11.0041C2.36569 10.5041 1.46569 9.50405 1.16569 9.10405C0.965686 8.70405 0.965685 8.50405 1.06569 8.10405C1.16569 7.50405 1.76568 7.00405 2.46568 7.00405C2.96568 7.00405 3.46569 7.40405 3.86569 7.70405C4.06569 7.90405 4.36569 8.30405 4.56569 8.50405C4.76569 8.70405 4.76568 8.80405 4.96568 9.00405C5.16568 9.30405 5.26569 9.50405 5.16569 9.10405C5.06569 8.60405 4.96569 7.80405 4.76569 7.00405C4.66569 6.40405 4.56568 6.30405 4.46568 5.90405C4.36568 5.40405 4.26569 5.10405 4.16569 4.60405C4.06569 4.30405 3.96569 3.50405 3.86569 3.10405C3.76569 2.60405 3.76569 1.70405 4.16569 1.30405C4.46569 1.00405 5.06568 0.904052 5.46568 1.10405C5.96568 1.40405 6.26569 2.10405 6.36569 2.40405C6.56569 2.90405 6.76569 3.60405 6.86569 4.40405C7.06569 5.40405 7.36569 6.90405 7.36569 7.20405C7.36569 6.80405 7.26569 6.10405 7.36569 5.70405C7.46569 5.40405 7.66569 5.00405 8.06569 4.90405C8.36569 4.80405 8.66568 4.80405 8.96568 4.80405C9.26568 4.90405 9.56569 5.10405 9.76569 5.30405C10.1657 5.90405 10.1657 7.20405 10.1657 7.10405C10.2657 6.70405 10.2657 5.90405 10.4657 5.50405C10.5657 5.30405 10.9657 5.10405 11.1657 5.00405C11.4657 4.90405 11.8657 4.90405 12.1657 5.00405C12.3657 5.00405 12.7657 5.30405 12.8657 5.50405C13.0657 5.80405 13.1657 6.80405 13.2657 7.20405C13.2657 7.30405 13.3657 6.80405 13.5657 6.50405C13.9657 5.90405 15.3657 5.70405 15.4657 7.10405C15.4657 7.80405 15.4657 7.70405 15.4657 8.20405C15.4657 8.70405 15.4657 9.00405 15.4657 9.40405C15.4657 9.80405 15.3657 10.7041 15.2657 11.1041C15.1657 11.4041 14.8657 12.1041 14.5657 12.5041C14.5657 12.5041 13.4657 13.7041 13.3657 14.3041C13.2657 14.9041 13.2657 14.9041 13.2657 15.3041C13.2657 15.7041 13.3657 16.2041 13.3657 16.2041C13.3657 16.2041 12.5657 16.3041 12.1657 16.2041C11.7657 16.1041 11.2657 15.4041 11.1657 15.1041C10.9657 14.8041 10.6657 14.8041 10.4657 15.1041C10.2657 15.5041 9.76568 16.2041 9.36568 16.2041C8.66568 16.3041 7.26569 16.2041 6.26569 16.2041C6.26569 16.2041 6.46569 15.2041 6.06569 14.8041C5.76569 14.5041 5.26568 14.0041 4.96568 13.7041L3.86569 13.0041Z" stroke="black" stroke-width="0.75" stroke-linecap="round" stroke-linejoin="round"/>
<path d="M12.1656 13.3041V9.90405" stroke="black" stroke-width="0.75" stroke-linecap="round"/>
<path d="M10.1657 13.3041L10.0657 9.90405" stroke="black" stroke-width="0.75" stroke-linecap="round"/>
<path d="M8.16565 9.90405V13.3041" stroke="black" stroke-width="0.75" stroke-linecap="round"/>
</svg>

<svg width="16" height="17" fill="none" xmlns="http://www.w3.org/2000/svg"><path d="M3.866 13.004c-.3-.4-.6-1.1-1.2-2-.3-.5-1.2-1.5-1.5-1.9-.2-.4-.2-.6-.1-1 .1-.6.7-1.1 1.4-1.1.5 0 1 .4 1.4.7.2.2.5.6.7.8.2.2.2.3.4.5.2.3.3.5.2.1-.1-.5-.2-1.3-.4-2.1-.1-.6-.2-.7-.3-1.1-.1-.5-.2-.8-.3-1.3-.1-.3-.2-1.1-.3-1.5-.1-.5-.1-1.4.3-1.8.3-.3.9-.4 1.3-.2.5.3.8 1 .9 1.3.2.5.4 1.2.5 2 .2 1 .5 2.5.5 2.8 0-.4-.1-1.1 0-1.5.1-.3.3-.7.7-.8.3-.1.6-.1.9-.1.3.1.6.3.8.5.4.6.4 1.9.4 1.8.1-.4.1-1.2.3-1.6.1-.2.5-.4.7-.5.3-.1.7-.1 1 0 .2 0 .6.3.7.5.2.3.3 1.3.4 1.7 0 .1.1-.4.3-.7.4-.6 1.8-.8 1.9.6v2.3c0 .4-.1 1.3-.2 1.7-.1.3-.4 1-.7 1.4 0 0-1.1 1.2-1.2 1.8-.1.6-.1.6-.1 1s.1.9.1.9-.8.1-1.2 0c-.4-.1-.9-.8-1-1.1-.2-.3-.5-.3-.7 0-.2.4-.7 1.1-1.1 1.1-.7.1-2.1 0-3.1 0 0 0 .2-1-.2-1.4l-1.1-1.1-1.1-.7z" fill="#fff"/><path d="M3.866 13.004c-.3-.4-.6-1.1-1.2-2-.3-.5-1.2-1.5-1.5-1.9-.2-.4-.2-.6-.1-1 .1-.6.7-1.1 1.4-1.1.5 0 1 .4 1.4.7.2.2.5.6.7.8.2.2.2.3.4.5.2.3.3.5.2.1-.1-.5-.2-1.3-.4-2.1-.1-.6-.2-.7-.3-1.1-.1-.5-.2-.8-.3-1.3-.1-.3-.2-1.1-.3-1.5-.1-.5-.1-1.4.3-1.8.3-.3.9-.4 1.3-.2.5.3.8 1 .9 1.3.2.5.4 1.2.5 2 .2 1 .5 2.5.5 2.8 0-.4-.1-1.1 0-1.5.1-.3.3-.7.7-.8.3-.1.6-.1.9-.1.3.1.6.3.8.5.4.6.4 1.9.4 1.8.1-.4.1-1.2.3-1.6.1-.2.5-.4.7-.5.3-.1.7-.1 1 0 .2 0 .6.3.7.5.2.3.3 1.3.4 1.7 0 .1.1-.4.3-.7.4-.6 1.8-.8 1.9.6v2.3c0 .4-.1 1.3-.2 1.7-.1.3-.4 1-.7 1.4 0 0-1.1 1.2-1.2 1.8-.1.6-.1.6-.1 1s.1.9.1.9-.8.1-1.2 0c-.4-.1-.9-.8-1-1.1-.2-.3-.5-.3-.7 0-.2.4-.7 1.1-1.1 1.1-.7.1-2.1 0-3.1 0 0 0 .2-1-.2-1.4l-1.1-1.1-1.1-.7z" stroke="#000" stroke-width=".75" stroke-linecap="round" stroke-linejoin="round"/><path d="M12.166 13.304v-3.4m-2 3.4l-.1-3.4m-1.9 0v3.4" stroke="#000" stroke-width=".75" stroke-linecap="round"/></svg>
